X:1
T:Title
%%score ( 1 2 ) ( 3 4 )
L:1/8
Q:1/4=90
M:4/4
K:Ab
V:1 treble nm="Grand Piano, Soprano"
V:2 treble 
V:3 bass nm="Grand Piano, Bass"
V:4 bass 
V:1
 z4 z2 [A,C][B,D] | [CE]3 [CE] [DF]2 [CE]2 | A4 z2 .E2 | [EA]3 [EB] [FA]2 [DF]2 | [CE]6 C-[CA] | %5
w: 1.~Oh,~ *|why~ should~ I~ be~|lost,~ So~|care less~ meet~ my~|doom?~ I~ *|
 [Ec]3 [DB] [CA]2 GF | [CA]6 EF | [EA]3 [EB] [DF]2 [DA]2 | [CE]6 EA | [Ec]4- [Ec]>[EB] [Ec]>[Ed] | %10
w: hear~ a~ lov ing~ *|voice~ In *|vit ing~ me~ to~|come.~ * *||
 [Ae]6 cB | [FA]4- [FA]>[CE] [Ec]>[DB] | [CA]6 [A,C][B,D] | [CE]4- [CE]>[CE] [DF]>[DG] | [CA]6 cd | %15
w: |||||
 [Ae]4- [Ae]>[EA] G>B | A->[EA-] [FA-]>[FA-] [EA]2 z2 |] %17
w: ||
V:2
 x8 | x8 | C4- [CE]2 C-[CF] | x8 | z4 z2 .E2 | z4 z2 D2 | z4 z2 C2 | x8 | z4 z2 C2 | x8 | %10
 z4 z2 E2 | x8 | x8 | x8 | z4 z2 E2 | z4 z2 E2 | E2 z2 z4 |] %17
V:3
 z4 z2 [A,,A,]2 | [A,,A,]3 [A,,A,] [A,,A,]2 [A,,A,]2 | E,4 A,2 [A,,A,]2 | %3
 [C,A,]3 [C,A,] [D,A,]2 [D,A,]2 | [A,,A,]6 [A,,A,]2 | [A,,A,]3 [A,,A,] [A,,A,]2 [A,,A,]2 | %6
 [A,,E,]6 [A,,A,]2 | [C,A,]3 [C,A,] [D,A,]2 [F,A,]2 | A,6 z2 | A,>A, A,>A, A,2 z2 | %10
 [A,C]>[A,C] [A,C]>[A,C] [A,C]2 A,2 | [D,A,]>[D,A,] [D,A,]>[D,A,] [D,A,]2 z2 | %12
 [A,,E,]>[A,,E,] [C,E,]>E, [A,,E,]2 [A,,E,]2 | [A,,A,]>[A,,A,] [A,,A,]>[A,,A,] [A,,A,]2 z2 | %14
 [A,,E,]>[A,,E,] [A,,E,]>[A,,E,] [A,,E,]2 A,B, | [A,C]>[A,C] [A,C]>[A,C] [C,A,]2 [E,B,]>[E,D] | %16
 C>[K:treble]C D>D C2 z2 |] %17
V:4
 x8 | x8 | A,,6 z2 | x8 | x8 | x8 | x8 | x8 | x8 | x8 | x8 | x8 | x8 | x8 | x8 | x8 | %16
 E,6[K:treble] z2 |] %17

